HTML/img/Rhythms/Rhythm_QuarterNote.svg

<svg width="612" height="792" viewBox="0 0 40 40" xmlns="http://www.w3.org/2000/svg"><path class="Stem" fill="none" stroke="#000" stroke-width=".65" stroke-linecap="round" stroke-linejoin="bevel" d="M17.034 14.504v14.685"/><path class="Note" d="M21.104 10.811c.625 0 1.152.161 1.582.488.403.35.605.793.605 1.327 0 .898-.462 1.739-1.387 2.52-.937.781-1.94 1.171-3.007 1.171-.625 0-1.153-.161-1.582-.488a1.683 1.683 0 01-.606-1.328c0-.897.469-1.738 1.406-2.52.912-.78 1.908-1.17 2.989-1.17"/></svg>

<?xml version="1.0" encoding="utf-8"?>
<svg width="612px" height="792px" viewBox="0 0 40 40" xmlns="http://www.w3.org/2000/svg">
  <title>Rhythm Reference</title>
  <desc>Generated by MuseScore 2.0.3</desc>
  <polyline class="Stem" fill="none" stroke="#000000" stroke-width="0.65" stroke-linecap="round" stroke-linejoin="bevel" points="17.034 14.504 17.034 29.189"/>
  <path class="Note" d="M 21.104 10.811 C 21.729 10.811 22.256 10.972 22.686 11.299 C 23.089 11.649 23.291 12.092 23.291 12.626 C 23.291 13.524 22.829 14.365 21.904 15.146 C 20.967 15.927 19.964 16.317 18.897 16.317 C 18.272 16.317 17.744 16.156 17.315 15.829 C 16.911 15.479 16.709 15.035 16.709 14.501 C 16.709 13.604 17.178 12.763 18.115 11.981 C 19.027 11.201 20.023 10.811 21.104 10.811"/>
</svg>
